X: 8
T:Paddy McNicholas
M:6/8
L:1/8
C:from Bulmer and Sharpley
R:Jig
K:D
d|cAA BAA|cAA A2d|cAA BGG|AFD D2d|cAA BAA|ABA AFD|
GFG BGB|AFD D2::e|fef gfg|afd cBA|fef gfg|afd dfg|
agf gfe|fed e2d|cAF G2B|AFD D2:|
